src/actions/32/flash.svg

<svg version="1.1" viewBox="0 0 32 32" xmlns="http://www.w3.org/2000/svg">
 <defs>
  <style id="current-color-scheme" type="text/css">.ColorScheme-Text {
        color:#363636;
      }</style>
 </defs>
 <path class="ColorScheme-Text" d="m14 13v8l7-4z" fill="currentColor"/>
 <path class="ColorScheme-Text" d="m6 6c-1.662 0-3 1.338-3 3v12c0 1.3588 0.89437 2.4995 2.1289 2.8711 0.37155 1.2345 1.5123 2.1289 2.8711 2.1289h18c1.662 0 3-1.338 3-3v-12c0-1.3588-0.89437-2.4995-2.1289-2.8711-0.37155-1.2345-1.5123-2.1289-2.8711-2.1289h-18zm0 1h18c0.74278 0 1.3874 0.40192 1.7324 1h-17.732c-1.662 0-3 1.338-3 3v11.732c-0.59808-0.34498-1-0.98965-1-1.7324v-12c0-1.108 0.892-2 2-2zm20 1c0.095233 0 0.18834 0.0048791 0.28125 0.013672-0.092943-0.0086007-0.18599-0.013672-0.28125-0.013672zm0.35352 0.023438c0.058934 0.0070263 0.11796 0.015023 0.17578 0.025391-0.058011-0.010277-0.11665-0.018476-0.17578-0.025391zm-18.354 0.97656h18c1.108 0 2 0.892 2 2v12c0 1.108-0.892 2-2 2h-18c-1.108 0-2-0.892-2-2v-12c0-1.108 0.892-2 2-2zm-3 14c0 0.095263 0.0050712 0.18831 0.013672 0.28125-0.0087928-0.092908-0.013672-0.18602-0.013672-0.28125zm0.023438 0.35352c0.0069147 0.059133 0.015113 0.11777 0.025391 0.17578-0.010368-0.05782-0.018364-0.11685-0.025391-0.17578z" fill="currentColor"/>
</svg>

<svg xmlns="http://www.w3.org/2000/svg" viewBox="0 0 32 32">
    <defs>
        <style id="current-color-scheme" type="text/css">
            .ColorScheme-Text{color:#050505;opacity:.7}
        </style>
    </defs>
    <path fill="currentColor" d="M14 13v8l7-4z" class="ColorScheme-Text"/>
    <path fill="currentColor" d="M6 6C4.338 6 3 7.338 3 9v12c0 1.359.894 2.5 2.129 2.871A2.992 2.992 0 0 0 8 26h18c1.662 0 3-1.338 3-3V11c0-1.359-.894-2.5-2.129-2.871A2.992 2.992 0 0 0 24 6H6zm0 1h18c.743 0 1.387.402 1.732 1H8c-1.662 0-3 1.338-3 3v11.732c-.598-.345-1-.99-1-1.732V9c0-1.108.892-2 2-2zm20 1zm.354.023zM8 9h18c1.108 0 2 .892 2 2v12c0 1.108-.892 2-2 2H8c-1.108 0-2-.892-2-2V11c0-1.108.892-2 2-2zM5 23zm.023.354z" class="ColorScheme-Text"/>
</svg>
